X:1
T:Title
%%score [ ( 1 2 ) ( 3 4 ) ]
L:1/8
Q:1/4=240
M:4/4
K:C
V:1 treble nm="Midi_74"
V:2 treble 
V:3 bass nm="Midi_74"
V:4 bass 
V:1
"^Single chant in F" A8 | A4 G4 | A8 || A8 | G4 F4 | G8 |"^Thomas Tallis\n(1505-1585)" A8 |] %7
V:2
 F8 | F4 E4 | F8 || F8 | E4 D4 | E8 | F8 |] %7
V:3
 C8 | C4 C4 | C8 || C8 | C4 A,4 | C8 | C8 |] %7
V:4
 F,8 | F,4 C,4 | F,8 || F,8 | C,4 D,4 | C,8 | F,8 |] %7

